X:415
T:Old French
T:The Rambler's Hornpipe
S:Donna Hind's notebooks
Z:Nigel Gatherer
M:4/4
L:1/8
K:D
(3ABc | d2 cd BdAF  | DFAd f2 ed | cdef gecA | defd  A2
(3ABc | d2 cd BdAF  | DFAd f2 ed | cdef gecA | d2 f2 d2 :|
cd    | efed  c2 A2 | AEAc e2 dc | BGBd gfed | cAce  a2
cd    | efed  c2 A2 | AEAc e2 dc | BGBd gfed | c2 A2 A2 :|]
<end>
<start>
